X: 606
T: Faithful Brown Cow., The
T: drium-fionn donn .dileas.
R:air
N:"Moderate." "2nd Setting"
B:O'Neill's 606
Z:Transcribed by John Walsh (walsh@math.ubc.ca)
M:3/4
L:1/8
%Q:80
K:G
(Bc)|d2g2f2|g2a2b2|g2f2d2|d4 (de)|
=f2e2d2|e2f2g2|d2c2 (BG)|A4 =fe|
d2c2A2|G2G2 (AB)|(c2d2) BG|A4 (dc)|
d2g2 (fg/a/)|g2 dc Bc|TA2G2G2|G4 (=fe)|
d2c2A2|G2G2 (AB)|(c2d2) BG|A4 (dc)|
d2g2 (fg/a/)|g2 dc Bc|TA2G2G2|G4||


